!!!OTL: 594. Jaegers Abendlied.
!!!COM: J. F. Reichardt
!!!ODT: 1781
!!!ARE: Europa, Mitteleuropa, Deutschland
!!!SCT: B0594
!!!TXL: @@DE
!!!YEM: Copyright 1995, estate of Helmut Schaffrath.
**kern	**text
*ICvox	*
*Ivox	*
*clefG2	*
*M6/8	*
*k[b-e-a-]	*
*E-:	*
!LO:TX:a:t=Langſam und leiſe.	!
{8B-	Jm
=1	=1
4e-	Fel-
8e-	-de
4g	ſchleich'
8g	ich
=2	=2
4b-	ſtill
8b-	und
4g}	wild,
{8g	ge-
=3	=3
4e-	-ſpannt
8e-	mein
4f	Feu-
8f	-er-
=4	=4
[4.g	-rohr;
8g]	.
8r}	.
{8b-	da
=5	=5
4b-	ſchwebt
8f	ſo
4f	licht
8b-	dein
=6	=6
4b-	lie-
8g	-bes
4g}	Bild,
{8ee-	dein
=7	=7
4b-	ſü-
8g	-ßes
4e-	Bild
8f	mir
=8	=8
[4.g	vor.
8g]	.
8r}	.
==	==
!!!AGN: Staende -, Jaeger - Lied
!!!GTL: Jägerlieder
!!!ONB: ESAC (Essen Associative Code) Database: BOEHME
!!!AMT: compound duple
!!!AIN: vox
!!!EED: Helmut Schaffrath
!!!EEV: 1.0
!!@@COMMENT:"Gedicht von Goethe 1771 oder 72. Mel. von Reichardt 1781. Eine andere von Anſelm
!!Weber 1811. Beide Komponiſten haben den Anfang ſo verändert: "Jm Walde ſchleich' ich" rc."
!!@@END:
!!!Text: J. W. Goethe
!!!URL-scan: https://archive.org/details/BoehmeVtLieder1895/page/n471/mode/2up
!!!ENC: Anna Maria Matuszewska
!!!EEV: 2024/15/07
*-	*-
